svg/editor/ZA_sort_ascending_letters_line.svg

<?xml version="1.0" encoding="UTF-8"?>
<svg width="24px" height="24px" viewBox="0 0 24 24" version="1.1" xmlns="http://www.w3.org/2000/svg" xmlns:xlink="http://www.w3.org/1999/xlink">
    <title>ZA_sort_ascending_letters_line</title>
    <g id="Icon" stroke="none" stroke-width="1" fill="none" fill-rule="evenodd">
        <g id="Editor" transform="translate(-384.000000, -288.000000)" fill-rule="nonzero">
            <g id="ZA_sort_ascending_letters_line" transform="translate(384.000000, 288.000000)">
                <path d="M24,0 L24,24 L0,24 L0,0 L24,0 Z M12.5935,23.2578 L12.5819,23.2595 L12.5109,23.295 L12.4919,23.2987 L12.4767,23.295 L12.4057,23.2595 C12.3958,23.2564 12.387,23.259 12.3821,23.2649 L12.378,23.2758 L12.3609,23.7031 L12.3659,23.7235 L12.3769,23.7357 L12.4805,23.8097 L12.4953,23.8136 L12.5071,23.8097 L12.6107,23.7357 L12.6233,23.7197 L12.6267,23.7031 L12.6096,23.2758 C12.6076,23.2657 12.601,23.2593 12.5935,23.2578 Z M12.8584,23.1453 L12.8445,23.1473 L12.6598,23.2397 L12.6499,23.2499 L12.6472,23.2611 L12.6651,23.6906 L12.6699,23.7034 L12.6784,23.7105 L12.8793,23.8032 C12.8914,23.8069 12.9022,23.803 12.9078,23.7952 L12.9118,23.7812 L12.8777,23.1665 C12.8753,23.1546 12.8674,23.147 12.8584,23.1453 Z M12.143,23.1473 C12.1332,23.1424 12.1222,23.1453 12.1156,23.1526 L12.1099,23.1665 L12.0758,23.7812 C12.0751,23.7927 12.0828,23.8019 12.0926,23.8046 L12.1083,23.8032 L12.3092,23.7105 L12.3186,23.7024 L12.3225,23.6906 L12.3404,23.2611 L12.3372,23.2485 L12.3278,23.2397 L12.143,23.1473 Z" id="MingCute"></path>
                <path d="M17.7071,4.29289 L20.5356,7.12132 C20.9261,7.51184 20.9261,8.14501 20.5356,8.53553 C20.145,8.92606 19.5119,8.92606 19.1213,8.53553 L18,7.41422 L18,20 C18,20.5523 17.5523,21 17,21 C16.4477,21 16,20.5523 16,20 L16,7.41421 L14.8787,8.53553 C14.4882,8.92606 13.855,8.92606 13.4645,8.53553 C13.074,8.14501 13.074,7.51184 13.4645,7.12132 L16.2929,4.29289 C16.6834,3.90237 17.3166,3.90237 17.7071,4.29289 Z M8.00003,12 C8.674326,12 9.28067533,12.3956587 9.55608491,13.0015223 L9.60994,13.1345 L11.9418,19.6637 C12.1275,20.1838 11.8565,20.756 11.3364,20.9417 C10.85345,21.1142286 10.3254908,20.8927974 10.1038503,20.443863 L10.0583,20.3363 L9.58102,19 L6.41903,19 L5.94177,20.3363 C5.75602,20.8564 5.1838,21.1275 4.66369,20.9417 C4.18073071,20.7692643 3.91252214,20.2635709 4.02540056,19.7757876 L4.05829,19.6637 L6.39012,13.1345 C6.63311,12.4542 7.27757,12 8.00003,12 Z M8.00003,14.5732 L7.13332,17 L8.86674,17 L8.00003,14.5732 Z M10.7586,3 C11.6994,3 12.1893533,4.09196698 11.6139222,4.79241099 L11.5364,4.87782 L7.41424,9 L11,9 C11.5523,9 12,9.44772 12,10 C12,10.51285 11.613973,10.9355092 11.1166239,10.9932725 L11,11 L5.24145,11 C4.30065,11 3.81071515,9.90803302 4.3861123,9.20758901 L4.46363,9.12218 L8.58581,5 L5.00003,5 C4.44774,5 4.00003,4.55228 4.00003,4 C4.00003,3.48716857 4.38606566,3.06449347 4.8834079,3.0067278 L5.00003,3 L10.7586,3 Z" id="形状" fill="#09244B"></path>
            </g>
        </g>
    </g>
</svg>

<svg xmlns="http://www.w3.org/2000/svg" width="24" height="24"><g fill="none" fill-rule="nonzero"><path d="M24 0v24H0V0h24ZM12.594 23.258l-.012.002-.071.035-.02.004-.014-.004-.071-.036c-.01-.003-.019 0-.024.006l-.004.01-.017.428.005.02.01.013.104.074.015.004.012-.004.104-.074.012-.016.004-.017-.017-.427c-.002-.01-.009-.017-.016-.018Zm.264-.113-.014.002-.184.093-.01.01-.003.011.018.43.005.012.008.008.201.092c.012.004.023 0 .029-.008l.004-.014-.034-.614c-.003-.012-.01-.02-.02-.022Zm-.715.002a.023.023 0 0 0-.027.006l-.006.014-.034.614c0 .012.007.02.017.024l.015-.002.201-.093.01-.008.003-.011.018-.43-.003-.012-.01-.01-.184-.092Z"/><path fill="#09244B" d="m17.707 4.293 2.829 2.828a1 1 0 0 1-1.415 1.415L18 7.414V20a1 1 0 1 1-2 0V7.414l-1.121 1.122a1 1 0 1 1-1.415-1.415l2.829-2.828a1 1 0 0 1 1.414 0ZM8 12c.674 0 1.28.396 1.556 1.002l.054.132 2.332 6.53a1 1 0 0 1-1.838.78l-.046-.108L9.581 19H6.419l-.477 1.336a1 1 0 0 1-1.917-.56l.033-.112 2.332-6.53A1.71 1.71 0 0 1 8 12Zm0 2.573L7.133 17h1.734L8 14.573ZM10.759 3c.94 0 1.43 1.092.855 1.792l-.078.086L7.414 9H11a1 1 0 0 1 .117 1.993L11 11H5.241c-.94 0-1.43-1.092-.855-1.792l.078-.086L8.586 5H5a1 1 0 0 1-.117-1.993L5 3h5.759Z"/></g></svg>
